.icons/oomox-ad/48x48/places/folder-black-backup.svg

<svg xmlns="http://www.w3.org/2000/svg" width="48" height="48" version="1">
 <rect style="opacity:.2" width="40" height="26" x="4" y="17" rx="2" ry="2"/>
 <path style="fill:#3f3f3f" d="m4 34c0 1.108 0.892 2 2 2h36c1.108 0 2-0.892 2-2v-22c0-1.108-0.892-2-2-2h-20v-2c0-1.108-0.892-2-2-2h-14c-1.108 0-2 0.892-2 2"/>
 <rect style="opacity:.2" width="40" height="26" x="4" y="15" rx="2" ry="2"/>
 <rect style="fill:#dcdcdc" width="36" height="16" x="6" y="13" rx="2" ry="2"/>
 <rect style="fill:#4f4f4f" width="40" height="26" x="4" y="16" rx="2" ry="2"/>
 <path style="opacity:.1;fill:#ffffff" d="m6 6c-1.108 0-2 0.892-2 2v1c0-1.108 0.892-2 2-2h14c1.108 0 2 0.892 2 2v-1c0-1.108-0.892-2-2-2zm16 4v1h20c1.108 0 2 0.892 2 2v-1c0-1.108-0.892-2-2-2z"/>
 <path style="fill:#c2c2c2" d="m24.464794 22.015626c-0.75501-0.05084-1.52681 0.02146-2.28711 0.226563-3.0412 0.820392-5.166593 3.58253-5.177734 6.732421a1.0001 1.0001 0 0 0 0.002 0.02539h-1.00195l2 2 2-2h-1a1.0001 1.0001 0 0 0 0 -0.01758c0.008-2.258041 1.517139-4.222437 3.697266-4.810547 2.180126-0.58811 4.472713 0.351145 5.615234 2.298828 1.142521 1.947684 0.842814 4.405532-0.734375 6.021485-1.53625 1.574006-4.08172 1.748333-6.09375 0.632812a1.0001221 1.0001221 0 1 0 -0.96875 1.75c2.717652 1.506737 6.253078 1.309813 8.494141-0.986328 2.200122-2.254196 2.62112-5.712738 1.027343-8.429688-1.195332-2.037712-3.307237-3.290847-5.572265-3.443359zm-0.480469 2.970703a1.0001 1.0001 0 0 0 -0.984375 1.013672v2.863281a1.0001 1.0001 0 0 0 0.06445 0.498047 1.0001 1.0001 0 0 0 0.332031 0.449219l1.896485 1.896484a1.0001 1.0001 0 1 0 1.414062 -1.414062l-1.707031-1.707031v-2.585938a1.0001 1.0001 0 0 0 -1.015625 -1.013672z"/>
</svg>

<svg xmlns="http://www.w3.org/2000/svg" width="48" height="48" version="1">
 <rect style="opacity:0.2" width="40" height="26" x="4" y="17" rx="2" ry="2"/>
 <path style="fill:#3f3f3f" d="M 4,34 C 4,35.108 4.892,36 6,36 H 42 C 43.108,36 44,35.108 44,34 V 12 C 44,10.892 43.108,10 42,10 H 24 C 21,10 20,6 17,6 H 6 C 4.892,6 4,6.892 4,8"/>
 <rect style="opacity:0.2" width="40" height="26" x="4" y="15" rx="2" ry="2"/>
 <rect style="fill:#dcdcdc" width="36" height="16" x="6" y="13" rx="2" ry="2"/>
 <rect style="fill:#4f4f4f" width="40" height="26" x="4" y="16" rx="2" ry="2"/>
 <path style="opacity:0.1;fill:#ffffff" d="M 6,6 C 4.892,6 4,6.892 4,8 V 9 C 4,7.892 4.892,7 6,7 H 17 C 20,7 21,11 24,11 H 42 C 43.108,11 44,11.892 44,13 V 12 C 44,10.892 43.108,10 42,10 H 24 C 21,10 20,6 17,6 Z"/>
 <path style="fill:#c2c2c2" d="m24.464794 22.015626c-0.75501-0.05084-1.52681 0.02146-2.28711 0.226563-3.0412 0.820392-5.166593 3.58253-5.177734 6.732421a1.0001 1.0001 0 0 0 0.002 0.02539h-1.00195l2 2 2-2h-1a1.0001 1.0001 0 0 0 0 -0.01758c0.008-2.258041 1.517139-4.222437 3.697266-4.810547 2.180126-0.58811 4.472713 0.351145 5.615234 2.298828 1.142521 1.947684 0.842814 4.405532-0.734375 6.021485-1.53625 1.574006-4.08172 1.748333-6.09375 0.632812a1.0001221 1.0001221 0 1 0 -0.96875 1.75c2.717652 1.506737 6.253078 1.309813 8.494141-0.986328 2.200122-2.254196 2.62112-5.712738 1.027343-8.429688-1.195332-2.037712-3.307237-3.290847-5.572265-3.443359zm-0.480469 2.970703a1.0001 1.0001 0 0 0 -0.984375 1.013672v2.863281a1.0001 1.0001 0 0 0 0.06445 0.498047 1.0001 1.0001 0 0 0 0.332031 0.449219l1.896485 1.896484a1.0001 1.0001 0 1 0 1.414062 -1.414062l-1.707031-1.707031v-2.585938a1.0001 1.0001 0 0 0 -1.015625 -1.013672z"/>
</svg>
